X:1
T:Les Heures
T:L'Heure d'Or
T:2. L'Heure d'Or
T:Augusta Mary Anne Holmès
T:Les Heures
T:(Holmès)
T:Note to Transcriber: This is what Elaine Gould says in her book "Behind Bars" (p.435): "Until well into the 20th century, a separate tail was used for each syllable in vocal music, and notes within a beat were only beamed to indicate that a syllable took more than one note. In syllabic setting, this notation makes all but the simplest rhythm difficult to read [...] Instrumental beaming (i.e. beaming into beats) is now used in vocal music together with syllablic slurs." For the OpenScore Lieder Corpus we are asked to follow the original unbeamed style for the vocal line. 
T:Creative Commons copyright waiver (CC0 1.0 Universal)
T:Creative Commons copyright waiver (CC0 1.0 Universal)
T:Creative Commons copyright waiver (CC0 1.0 Universal)
T:Creative Commons copyright waiver (CC0 1.0 Universal)
T:Creative Commons copyright waiver (CC0 1.0 Universal)
T:Creative Commons copyright waiver (CC0 1.0 Universal)
C:Augusta Mary Anne Holmès
Z:Augusta Mary Anne Holmès
Z:Creative Commons copyright waiver (CC0 1.0 Universal)
L:1/8
Q:1/8=80
M:4/4
K:G
V:1 treble nm="Chant\nVoice"
V:1
"^Larghetto" z8 | z4 z2"^(Ton original)" z B, | B,2 (3:2:2B,2 B, D2 (3:2:2D2 D | E2 E2 B4 | %4
w: |Res-|\- tons é- ten- dus sur le|sa- ble d'or,|
 d B A G E2 (3(CD) E | (C4 D4) | B, B, B,3/2 B,/ D2- D D | E2 (3:2:2E2 E B2- (3B z B | %8
w: Sous les cieux brû- lants d'â- * pres|flam- mes;|Que tes bras di- vins _ m'é-|trei- gnent en- cor! _ Aux|
 e2 (3(EF) G (3!breath!B2 B,/ B,/ (3:2:2D2 E | (C2 A,2 G,4) || (=F2 A,) F E3/2 E/ G A | %11
w: feux du _ So- leil con- su- mons nos|â- * mes.|Tou- te la mer se livre au|
 !tenuto!B2 !tenuto!B2 !tenuto!B4 | !tenuto!d!tenuto!B !tenuto!A !tenuto!G !tenuto!D2 (3B, D E | %13
w: Dieu du jour|Li- * vre ta lèvre à ma ca-|
 (A4 D2-) (3D z B, | B,2 (3:2:2B,2 B, D2 (3:2:2D2 D | E2- (3:2:2E2 E B2- B B | %16
w: res- se! _ Du|coeur des fo- rêts monte un|chant _ d'a- mour _ Oh!|
 (e2 (3(E)F) G (3B2 B,/ B,/ (3:2:2D2 E | (C2 A,2 G,4) || z8 | z8 | z8 | z8 | z8 | z8 | z8 || %25
w: chante à _ mon coeur ta pro- fonde i-|\- vres- * se!||||||||
[M:2/4] z4 ||[M:4/4] z8 || B, B, (3:2:2B,2 B, D2 (3:2:2D2 D | E2 E2 B4 | d B A G E2 (3(CD) E | %30
w: ||Sous le voi- le d'or de tes|clairs che- veux|Plon- ge dans mes yeux tes _ yeux|
 (A,4 D2-) D B, | B,2 (3:2:2B,2 B, D3 D | E2 (3:2:2E2 E B2- (3:2:2B2 B | %33
w: va- gues _ Tes|yeux qu'a- lan- guit l'ar-|\- deur des a- veux, _ Tes|
 !^!e2 (3(EF) G (3B2 B,/ B,/ (3:2:2D2 E | (C2 A,2 G,2-) G, G, || (=F2 A,) F E2 G A | %36
w: yeux pleins _ de ciel et cou- leur des|va- * gues! _ Le|flot é- toi- lé de vi-|
 !tenuto!B2 !tenuto!B2 !tenuto!B4 | (dB) A G D2 (3B, D E | (A4 D4) | %39
w: van- tes fleurs|Vers _ ta beau- té rampe  et se|traî- ne;|
 B, B, B,3/2 B,/ D2- (3:2:2D2 D | E2 (3:2:2E2 E B2- B B | e2 (3(EF) ^G (3^c2 B,/ B,/ (3:2:2^C2 =G | %42
w: A tes pieds de neige _ aux|ro- ses pâ leurs _ La|mer re- * con- naît l'An- a- dy- o-|
 (G4 _E2-) (3E z E | D2 _E2 D2- D B, | D z !tenuto!=E2 !tenuto!D2- D z | %45
w: \- mè- ne! _ C'est|l'heu- re d'or! _ Tou-|jours, en- cor! _|
 (d B A G (3!breath!D2) B,/ B,/ (3:2:2D2 E | (C4 A,4 | B,8-) | B,4- B,2 z2 |] %49
w: Ex- pi- rons tous deux dans  sa  chaude ha-|lei- *|ne!|_ _|

